X:336
T:O Mother,Roger. (p)1695.PLFD.336
M:4/4
L:1/4
Q:1/2=100
S:Playford, Dancing Master,9th Ed,1695.
O:England
H:1695.
Z:Chris Partington.
K:C
G/|:ccde|fge(d/c/)|ffdg|e(d/c/)g2|
ee/e/aa|ddgg|c(B/A/)d(c/B/)|(c/B/)(A/G/)G2:|
|:ddB(A/G/)|ffd2|(f/e/)(d/c/) (c/d/)e|(d/c/)(B/A/)A2|
ff(f/g/)a|(g/f/)(e/d/)^c2|af(f/g/)a|(g/f/)(e/d/)d>e|
fede|(d/c/)(B/A/)B>c|ABcd|e(d/c/)c2:|
